img/svg/teasier-general.svg

<svg width="592" height="102" viewBox="0 0 592 102" fill="none" xmlns="http://www.w3.org/2000/svg">
<path d="M31.2086 100.577H45.6009V33.8577H31.2086V100.577ZM0 0.995812V14.5105H76.8095V0.995812H0Z" fill="white"/>
<path d="M95.8048 86.9205V100.577H166.251V86.9205H95.8048ZM160.646 44.1004H95.8048V57.3305H160.646V44.1004ZM165.342 0.995812H95.8048V14.5105H165.342V0.995812Z" fill="white"/>
<path d="M232.641 0.995812H218.551L180.525 100.577H196.433L225.672 21.3389L254.911 100.577H270.818L232.641 0.995812Z" fill="white"/>
<path d="M326.379 43.2469C309.411 38.6946 301.988 35.2803 301.988 27.7406C301.988 20.7699 308.048 13.6569 323.5 13.6569C337.893 13.6569 343.953 19.9163 346.68 26.7448L360.466 22.3347C355.467 9.95816 342.892 0 323.046 0C301.079 0 287.141 11.0962 286.535 27.1715C285.929 44.5272 299.867 50.6444 321.228 56.3347C339.256 61.1716 348.649 64.5858 348.649 73.5481C348.649 82.6527 338.65 88.2008 325.924 88.2008C310.926 88.2008 301.079 81.0879 297.443 73.9749L283.656 79.3808C289.413 91.6151 304.412 102 326.379 102C350.77 102 363.95 88.6276 363.95 73.1213C363.95 55.0544 347.892 48.9372 326.379 43.2469Z" fill="white"/>
<path d="M384.474 0.995812V100.577H398.866V0.995812H384.474Z" fill="white"/>
<path d="M423.047 86.9205V100.577H493.493V86.9205H423.047ZM487.888 44.1004H423.047V57.3305H487.888V44.1004ZM492.584 0.995812H423.047V14.5105H492.584V0.995812Z" fill="white"/>
<path d="M575.487 100.577H592L569.124 62.4519C581.698 57.4728 588.97 46.2343 588.97 33.1464C588.97 15.364 575.79 0.995812 554.277 0.995812H514.584V14.5105H554.277C567.003 14.5105 574.123 23.3305 574.123 33.1464C574.123 42.8201 567.003 51.6402 554.277 51.6402H514.584V100.577H529.128V65.1548H554.125L575.487 100.577Z" fill="white"/>
</svg>

<svg width="592" height="102" viewBox="0 0 592 102" fill="none" xmlns="http://www.w3.org/2000/svg"><path d="M31.209 100.577H45.6v-66.72H31.209v66.72zM0 .996V14.51h76.81V.997H0zM95.805 86.92v13.657h70.446V86.921H95.805zm64.841-42.82H95.805v13.23h64.841V44.1zM165.342.996H95.805V14.51h69.537V.997zm67.299 0h-14.09l-38.026 99.581h15.908l29.239-79.238 29.239 79.238h15.907L232.641.996zm93.738 42.251c-16.968-4.552-24.391-7.967-24.391-15.506 0-6.971 6.06-14.084 21.512-14.084 14.393 0 20.453 6.26 23.18 13.088l13.786-4.41C355.467 9.958 342.892 0 323.046 0c-21.967 0-35.905 11.096-36.511 27.172-.606 17.355 13.332 23.472 34.693 29.163 18.028 4.837 27.421 8.25 27.421 17.213 0 9.105-9.999 14.653-22.725 14.653-14.998 0-24.845-7.113-28.481-14.226l-13.787 5.406C289.413 91.615 304.412 102 326.379 102c24.391 0 37.571-13.372 37.571-28.879 0-18.067-16.058-24.184-37.571-29.874zM384.474.996v99.581h14.392V.996h-14.392zm38.573 85.924v13.657h70.446V86.921h-70.446zm64.841-42.82h-64.841v13.23h64.841V44.1zM492.584.996h-69.537V14.51h69.537V.997zm82.903 99.581H592l-22.876-38.125c12.574-4.98 19.846-16.218 19.846-29.306 0-17.782-13.18-32.15-34.693-32.15h-39.693V14.51h39.693c12.726 0 19.846 8.82 19.846 18.636 0 9.674-7.12 18.494-19.846 18.494h-39.693v48.937h14.544V65.155h24.997l21.362 35.422z" fill="#fff"/></svg>
